X: 20861
T: Jolly Angler, The
R: reel
M: 4/4
K: Adorian
|:ede A2 Bde|fgfd eBde|GABd dBde|[M:2/4]GABd|
[M:4/4]ede A2 Bde|fgfd Bdde|GAB A2 EGA|[M:2/4]B2AG:|
|:[M:4/4]AEG AA ege|Aege dege|BAB d2 BBA|BAGE AGEG|
AEG A2 ege|Aege dega|bage gage|dedB cBAG:|

